!!!!SEGMENT: pl-kk--kk-i-132--003_anonim--benedicte-dominum-omnes-angeli.krn
!!!cenid: 16xx:740
!!!COM: Anonim
!!!COM-rismid: pe30004985
!!!CDT:
!!!CNT:
!!!OTL: Benedicte Dominum omnes Angeli
!!!PDT:
!!!AGN: Sacred
!!!SMS-siglum: PL-Kk
!!!SMS-shelfmark: Kk.I.132
!!!SMS-shelfwork: 003 W
!!!SMS-variant:
!!!SMS-altvar:
!!!NIFC-rismid: 1001144431
!!!URL-scan: http://repozytorium.nifc.pl/skany/pl-kk-nut--i-132
!!!ONB-nifc: UWAGA: Tractus post 7simam
**kern	**text
*I"Baſso	*
*I'B	*
*clefF4	*
*k[]	*
*C:	*
*M2/2	*
*met(c|)	*
=1	=1
4C\	Be-
4D\	.
4E\	.
4G\	-ne-
=2	=2
4c\	-di-
4G\	.
4E\	ci-
4C\	-te
=3	=3
*2\right	*
2.G\	Do-
4G\	-mi-
=4	=4
2C/	-num
4G\	om-
4B\	-nes
!!LO:LB:g=original
=5	=5
4c\	An-
4B\	.
4c\	.
8F\	-ge-
8F#X\	-li
=6	=6
4G\	e-
4G\	-jus
4r	.
4G\	po-
=7	=7
2G\	-ten-
4G\	-tes
4B\	vir-
=8	=8
4c\	-tu-
4G\	.
4C/	-te
4C/	qui
!!LO:LB:g=original
=9	=9
2C/	fa-
4BB/	-ci-
4C/	-tis
=10	=10
4G\	ver-
4c\	-bum
4G\	e-
4F#X\	.
=11	=11
2G\	-jus
2r	.
=12	=12
2G\	Be-
2G\	-ne-
=13	=13
2G\	-di-
4G\	-ci-
4G\	-te
=14	=14
4C/	Do-
4BB/	-mi-
2C/	-no
!!LO:LB:g=original
=15	=15
4C/	om-
4D/	.
4E/	-nes
4C/	vir-
=16	=16
2G\	-tu-
2G\	-tes
=17	=17
1G\	e-
=18	=18
2G\	-jus
4r	.
4G\	Mi-
=19	=19
2G\	-nis-
2G\	-tri
=20	=20
2G\	e-
4G\	-jus
4G\	qui
=21	=21
4C/	fa-
4BB/	.
!!LO:LB:g=original
4E\	-ci-
4D\	-tis
=22	=22
2C/	vo-
2C/	-lun-
=23	=23
2.F\	-ta-
4F#X\	-tem
=24	=24
2G\	e-
2G\	-jus,
=25	=25
2B\	Be-
4G\	.
4B\	-ne-
=26	=26
4c\	-di-
4G\	.
4E\	-ci-
4C\	-te
!!LO:LB:g=original
=27	=27
2.GG/	Do-
4GG/	-mi-
=28	=28
2C/	-no
4G\	om-
8E\	-ni-
8C\	-a
=29	=29
2G\	o-
4G\	-pe-
4G\	-ra
=30	=30
2G\	e-
4C/	-jus,
4C/	in
=31	=31
4C/	om-
4D/	-ni
4E/	lo-
4C/	-co
!!LO:LB:g=original
=32	=32
4G\	do-
4G\	-mi-
4B\	-na-
4G\	-ti-
=33	=33
2c\	-o-
4B\	.
4c\	-nis
=34	=34
2G\	e-
2G\	-jus,
=35	=35
4.G\	Be-
8G\	-ne-
2G\	-dic
=36	=36
4.C/	a-
8D/	-ni-
2E/	-ma
!!LO:LB:g=original
=37	=37
2G\	me-
2c\	-a
=38	=38
2.G\	Do-
4G\	-mi-
=39	=39
2C/	-no
2r	.
==	==
*-	*-
!!!EED: Leszek Kubiak
!!!EST: 2021-02-16
!!!ENC: Krzysztof Stępień
!!!END: 2021-02-11
